X:1
%
T:Mrs. Robertson of Alexandria
M:C
L:1/8
R:Strathspey
S:Surenne – Dance Music of Scotland, pp. 128-129  (1852)
Z:AK/Fiddler’s Companion
K:D
(F<D)(F<A) (d<f)(e<f) | d>BA>F (G<E)E>A | (F<D)(F<A) (d<f)(e<f) |
d>BA>G (F<D)D2 | (F<D)(F<A) (d<f)(e<f) | d>BA>F (G<E)E>A |
(F<D)(F<A) (d<f)(e<f) | d>BA>G (F<D)D2 || A>df>d (B/4c/2<d) A>F |
A>d (f/e/d) (f<e)e>f | A>df>d (B/4c/2<d) A>F | (G<E)A>G (F<D)D2 |
A>df>d (B/4c/2<d) A>F | A>d (f/e/d) (f<e)e>f | A>df>d (B/4/c2<d) A>F | (G<E)A>G (F<D)D2 ||

